gilbertguide/assets/images/item_9935.svg

<?xml version="1.0" standalone="no"?><!DOCTYPE svg PUBLIC "-//W3C//DTD SVG 1.1//EN" "http://www.w3.org/Graphics/SVG/1.1/DTD/svg11.dtd"><svg xmlns="http://www.w3.org/2000/svg" version="1.1" width="125px" height="46px" viewBox="0 0 125 46"><desc>Hiking</desc><defs/><g id="Polygon10611"><path d="m33.5 15.2l0 4.2l4 0l0-4.2l2.4 0l0 10.8l-2.4 0l0-4.5l-4 0l0 4.5l-2.4 0l0-10.8l2.4 0zm8.5 10.8l0-7.8l2.5 0l0 7.8l-2.5 0zm2.5-10c0 .7-.5 1.2-1.3 1.2c-.7 0-1.2-.5-1.2-1.2c0-.7.5-1.2 1.3-1.2c.7 0 1.2.5 1.2 1.2zm4.3 5.5c0 0 .08-.03.1 0c.2-.4.3-.7.5-1c.04.03 1.6-2.3 1.6-2.3l2.9 0l-2.8 3.1l3.2 4.7l-2.9 0l-1.9-3.2l-.7.8l0 2.4l-2.4 0l0-11.4l2.4 0l0 6.9zm6.4 4.5l0-7.8l2.5 0l0 7.8l-2.5 0zm2.6-10c0 .7-.5 1.2-1.4 1.2c-.7 0-1.2-.5-1.2-1.2c0-.7.5-1.2 1.3-1.2c.8 0 1.2.5 1.3 1.2zm1.8 4.7c0-1 0-1.8 0-2.5c-.04-.02 2.1 0 2.1 0l.1 1.1c0 0 .04-.04 0 0c.4-.5 1.1-1.3 2.5-1.3c1.6 0 2.8 1.1 2.8 3.4c-.05-.02 0 4.6 0 4.6l-2.5 0c0 0 .02-4.34 0-4.3c0-1-.3-1.7-1.2-1.7c-.7 0-1.1.4-1.3.9c0 .1 0 .4 0 .6c-.04-.01 0 4.5 0 4.5l-2.5 0c0 0 .03-5.33 0-5.3zm16.8 4.2c0 1.5-.3 2.7-1.2 3.5c-.8.7-2 .9-3.2.9c-1 0-2.1-.2-2.8-.5c0 0 .5-1.9.5-1.9c.5.3 1.4.6 2.3.6c1.1 0 2-.6 2-2.1c.01.02 0-.5 0-.5c0 0-.02.03 0 0c-.5.7-1.2 1-2.1 1c-2 0-3.3-1.5-3.3-3.8c0-2.5 1.6-4.1 3.5-4.1c1.1 0 1.8.5 2.2 1.1c-.05.02 0 0 0 0l.1-.9c0 0 2.08-.02 2.1 0c-.1.5-.1 1.1-.1 2.3c0 0 0 4.4 0 4.4zm-2.4-3.5c0-.2 0-.3-.1-.5c-.1-.6-.6-1.1-1.3-1.1c-.9 0-1.6.8-1.6 2.3c0 1.1.6 2 1.6 2c.6 0 1.1-.4 1.3-.9c.1-.2.1-.5.1-.7c0 0 0-1.1 0-1.1z" stroke="none" fill="#fff"/></g></svg>

<?xml version="1.0" standalone="no"?><!DOCTYPE svg PUBLIC "-//W3C//DTD SVG 1.1//EN" "http://www.w3.org/Graphics/SVG/1.1/DTD/svg11.dtd"><svg xmlns="http://www.w3.org/2000/svg" version="1.1" width="125px" height="46px" viewBox="0 0 125 46">  <desc>Hiking</desc>  <defs/>  <g id="Polygon10458">    <path d="M 33.5 15.2 L 33.5 19.4 L 37.5 19.4 L 37.5 15.2 L 39.9 15.2 L 39.9 26 L 37.5 26 L 37.5 21.5 L 33.5 21.5 L 33.5 26 L 31.1 26 L 31.1 15.2 L 33.5 15.2 Z M 42 26 L 42 18.2 L 44.5 18.2 L 44.5 26 L 42 26 Z M 44.5 16 C 44.5 16.7 44 17.2 43.2 17.2 C 42.5 17.2 42 16.7 42 16 C 42 15.3 42.5 14.8 43.3 14.8 C 44 14.8 44.5 15.3 44.5 16 Z M 48.8 21.5 C 48.8 21.5 48.88 21.47 48.9 21.5 C 49.1 21.1 49.2 20.8 49.4 20.5 C 49.44 20.53 51 18.2 51 18.2 L 53.9 18.2 L 51.1 21.3 L 54.3 26 L 51.4 26 L 49.5 22.8 L 48.8 23.6 L 48.8 26 L 46.4 26 L 46.4 14.6 L 48.8 14.6 L 48.8 21.5 Z M 55.2 26 L 55.2 18.2 L 57.7 18.2 L 57.7 26 L 55.2 26 Z M 57.8 16 C 57.8 16.7 57.3 17.2 56.4 17.2 C 55.7 17.2 55.2 16.7 55.2 16 C 55.2 15.3 55.7 14.8 56.5 14.8 C 57.3 14.8 57.7 15.3 57.8 16 Z M 59.6 20.7 C 59.6 19.7 59.6 18.9 59.6 18.2 C 59.56 18.18 61.7 18.2 61.7 18.2 L 61.8 19.3 C 61.8 19.3 61.84 19.26 61.8 19.3 C 62.2 18.8 62.9 18 64.3 18 C 65.9 18 67.1 19.1 67.1 21.4 C 67.05 21.38 67.1 26 67.1 26 L 64.6 26 C 64.6 26 64.62 21.66 64.6 21.7 C 64.6 20.7 64.3 20 63.4 20 C 62.7 20 62.3 20.4 62.1 20.9 C 62.1 21 62.1 21.3 62.1 21.5 C 62.06 21.49 62.1 26 62.1 26 L 59.6 26 C 59.6 26 59.63 20.67 59.6 20.7 Z M 76.4 24.9 C 76.4 26.4 76.1 27.6 75.2 28.4 C 74.4 29.1 73.2 29.3 72 29.3 C 71 29.3 69.9 29.1 69.2 28.8 C 69.2 28.8 69.7 26.9 69.7 26.9 C 70.2 27.2 71.1 27.5 72 27.5 C 73.1 27.5 74 26.9 74 25.4 C 74.01 25.42 74 24.9 74 24.9 C 74 24.9 73.98 24.93 74 24.9 C 73.5 25.6 72.8 25.9 71.9 25.9 C 69.9 25.9 68.6 24.4 68.6 22.1 C 68.6 19.6 70.2 18 72.1 18 C 73.2 18 73.9 18.5 74.3 19.1 C 74.25 19.12 74.3 19.1 74.3 19.1 L 74.4 18.2 C 74.4 18.2 76.48 18.18 76.5 18.2 C 76.4 18.7 76.4 19.3 76.4 20.5 C 76.4 20.5 76.4 24.9 76.4 24.9 Z M 74 21.4 C 74 21.2 74 21.1 73.9 20.9 C 73.8 20.3 73.3 19.8 72.6 19.8 C 71.7 19.8 71 20.6 71 22.1 C 71 23.2 71.6 24.1 72.6 24.1 C 73.2 24.1 73.7 23.7 73.9 23.2 C 74 23 74 22.7 74 22.5 C 74 22.5 74 21.4 74 21.4 Z " stroke="none" fill="#fff"/>  </g></svg>
